X:1
T:Les Orientales
T:Malédiction
T:A Madame Ch. Lamoureux (BRUNET-LAFLEUR) 
T:Les Orientales
T:5. Malédiction
T:Marie Jaëll 
T:Victor Hugo 
T:Creative Commons copyright waiver (CC0 1.0 Universal)
T:Creative Commons copyright waiver (CC0 1.0 Universal)
T:Creative Commons copyright waiver (CC0 1.0 Universal)
T:Creative Commons copyright waiver (CC0 1.0 Universal)
T:Creative Commons copyright waiver (CC0 1.0 Universal)
T:Creative Commons copyright waiver (CC0 1.0 Universal)
T:Creative Commons copyright waiver (CC0 1.0 Universal)
C:Marie Jaëll
Z:Victor Hugo
Z:Creative Commons copyright waiver (CC0 1.0 Universal)
%%score 1 { ( 2 3 ) | ( 4 5 ) }
L:1/8
Q:1/4=172
M:6/4
K:Bb
V:1 treble nm="Chant\nVoice"
V:2 bass nm="Piano"
V:3 bass 
V:4 bass 
V:5 bass 
V:1
"^Très vite""^TRANSCRIBER: please ignore the \n6/8\n time signature in the IMSLP edition  \n- it is clearly a mistake by the original engraver, as this song is definitely in \n6/4\n time\n" z2 z2 z2 z4 z!p! D | %1
w: Qu’il|
!<(! D4- D D D4- D D!<)! |!>(! D6-!>)! D2 z2 D2 |!<(! D4 D2 ^C4 D2!<)! | %4
w: er- * re sans _ re-|\- pos, _ cour-|bé dès sa jeu-|
!>(! E4 D2!>)! z2!<(! D2 D2 | D4 D D!<)! ^F3!p! D!<(! D D | G4 A2!<)! A2 G2 ^C2 | ^C6- C2 C C C2 | %8
w: \- nes- se, En des|sa- bles sans borne où le so-|\- leil re- nais- se Si-|tôt _ qu’il au- ra|
 D6 z2 z4 |!mp!!<(! D D D2 F G A4- A!<)!!mp!!<(! B | A2 G G F2 =E2 D2!<)! z!mp! D | %11
w: lui!|Comme un noir meur- tri- er _ qui|fuit dans la nuit som- bre, S’il|
!<(! =E2 E2 F F E2!<)!!mp! E!<(! E E2- | E2 =E2 E2 F4 G2!<)! |!f!!>(! A3 D D D!>)!!p! D6 | %14
w: mar- che, que sans cesse il en- ten-|* de dans l’ombre Un|pas der- riè- re lui!|
 z4 z2 z2!<(! ^C C D D | E E D2 E2 =E E F2 ^F2 | G3 G!<)! z z/ ^F/!sfz! G4- !tenuto!.G ^c | %17
w: En des gla- ci-|ers po- lis comme un tran- chant de|ha- che, Qu’il glisse, _ et|
!sfz! d4- !tenuto!.d F!sfz! E6- | !tenuto!.E4 D2!sfz! ^C6- | %19
w: roule, _ et tombe,|_ et tombe,|
!<(! C6- !tenuto!.C2 !tenuto!.G2 B ^c!<)! |!ff! d4 d d d3 d c B | A6 z4 z2 | %22
w: _ _ et se rat-|ta- che De l’ongle à leurs pa-|rois!|
 z2 z2!mf! =E E F4 F F | =E2 F F E2 ^D D A2 A z | %24
w: Qu’il soit pris pour un|autre, et, râ- lant sur la rou- e,|
 =E4 E z !>!!tenuto!.A2 !>!!tenuto!.B2 !>!!tenuto!.=B2 | !>!c6- c2 z2!mf! c c | %26
w: Di- se: “Je n’ai rien|fait!” _ Et qu’a-|
 =B4 c c B B z!<(! B c c | ^c4 c2!<)!!ff!!<(! d6-!<)! |!>(! d12-!>)! | d2 z2 z2 z4!ff! d2 | %30
w: \- lors on le clou- e Sur un gi-|bet en croix!|_|* Qu’il|
"^Lieder.net has \nthe error 'pense'\nV\n" A3 F F F D6 | z2 z2 e2 e3 e B B | G2 A2 z2 z4 z2 | %33
w: pende é- che- ve- lé,|la bou- che vi- o-|let- te!|
 z2 z2!mf! D2 z D D2 D D | D6 z A ^G4- | G2- G z (c2 =B2 _B2) A2 | z ^d d4- d2 d2 z2 | %37
w: Que, vi- sible à lui|seul, la mort,|_ _ chau- * * ve|sque- let- * te,|
 B2 _c2 B2 e e d4 | z12 | z2!ff! d2 d d e e e2 B2 | G G E D ^C C/ z/ z2 A A F2 | %41
w: Rie en le re- gar- dant!||Que son ca- da- vre souffre, et|vive as- sez en- co- re Pour sen- tir,|
 _E3/2 E/ D3/2 D/ _D3/2 D/ C3/2 C/ =B,3/2 B,/ z2 | B3/2 B/ f4 B3/2 B/ f4 | z12[Q:1/4=166] | %44
w: quand la mort le ronge et le dé- vo- re,|Cha- que coup de sa dent!||
"^Un peu plus lent."[Q:1/4=160] z12 | z2 z2!mf! ^C2 D D D2 E2 | D4 z ^C D D D2 E2 | %47
w: |Qu’il ne soit plus vi-|\- vant, et ne soit pas une|
!>(! D4- D D!>)! z4 z2 | %48
w: â- * me!|
 z"^TRANSCRIBER and REVIEWER: better to use the text on Lieder.net:  \"\nOu\n la pluie à ruisseaux!\":\n\"Que sur ses membres nus tombe un soleil de flamme \nou\n la pluie à ruisseaux!\"\n\"\nOù\n la pluie à ruisseaux!\" doesn't make sense...   See also: https://poesie.webnet.fr/lesgrandsclassiques/Poemes/victor_hugo/malediction\n"!mf! G G G B B G2 G2 ^c c | %49
w: Que sur ses mem- bres nus tombe un so-|
!<(! d3 d!<)! e2- e4 d B | G2 E E D2 z4 z2 | z4 z2!f! D3/2 D/ G4 |!mf! D3/2 D/ G4!mf! D3/2 D/ G4 | %53
w: leil de flam- me Ou la|pluie à ruis- seaux!|Qu'il s’é- veille|en sur- saut cha- que nuit|
!mf! D3/2 D/ G3 G[Q:1/4=154] z3/2"^Encore plus lent"!mf! G/ G3 G/ z/ | %54
w: dans la bru- me, Et lut- te,|
[Q:1/4=148] z3/2!mf! D/!<(! D3/2 D/!<)! !>!E2- E2 D2 ^C C | G6- G E E3 E |!f! D4 D2 B,2 B,2 B,2 | %57
w: et se se- coue, _ et vai- ne-|ment _ é- cu- me|Sous des grif- fes d’oi-|
[Q:1/4=160] G,12 | z12 | z12 |] %60
w: seaux!|||
V:2
!p!"^Très vite"!<(! x3/2 B,2 B,2 B,2!<)! B,2 B,2 B,/- | %1
(B,3/2 B,2 B,2 B,2 B,2 B,2"^Musescore does \nnot do beams \nover line breaks\n" B,/-) | %2
!>(! (B,3/2 B,2 B,2 B,2!>)! B,2 B,2 B,/-) |(B,3/2 B,2 B,2 B,2 B,2 B,2 B,/-) | %4
!>(! (B,3/2 B,2 B,2 B,2!>)! B,2 B,2 B,/-) |(B,3/2 B,2 B,2 B,2 B,2 B,2 B,/-) | %6
 (B,3/2 B,2 B,2 B,2 B,2 B,2!<(! B,/-) |(B,3/2!<)!!>(! B,2 B,2 B,2 B,2 B,2!>)! A,/) | %8
 (A,3/2 D2 D2 D2 D2 D2 D/-) |!p!(D3/2 D2 D2 D2 D2 D2 D/) | (D3/2 D2 D2 D2 D2 D2 D/-) | %11
!p!(D3/2 D2 D2 D2!<(! D2 D2 D/-)!<)! | (D3/2!>(! D2 D2 D2!>)! D2 D2 D/-) | %13
(D3/2 D2 D2 D2 D2 D2 x/) |[K:treble] !>!G,>FG>F !>!G,>FG>F!<(! !>!G,>FG>F | %15
 !>!G,>FG>F !>!G,>FG>F!<)!!f! !>!G,>FG>^F |!>(! !>!G,>^FG>F !>!G,>F!>)!!f!!>(! [^C=EG]6 | %17
 [=B,DF]6 [G,_B,D_E]6- | [G,B,DE]4 z2[I:staff +1] [=E,G,B,]6-!>)! | %19
!p! [E,G,B,]6- [E,G,B,]2[I:staff -1] z2 z2 | %20
!f! z!<(![I:staff +1] (A,B,[I:staff -1]DFA)!<)! z!f!!<(![I:staff +1] (B,[I:staff -1]D=EG^G)!<)! | %21
!>(! z ([fa]dBAF)!>)! z!>(! ([^C=E][I:staff +1]B,A,F,!pp!=E,)!>)! | %22
!mf![I:staff -1] (=C3/2 x/ D3/2 x/ C3/2) x/ (A,3/2 x/ C3/2 x/ A,3/2) x/ | %23
 (C3/2 x/ D3/2 x/ C3/2) x/ (=B,3/2 x/ C3/2 x/ B,3/2) x/ | %24
 (C3/2 x/ D3/2 x/ C3/2) x/!<(! A,z/A/A,z/A/A,z/A/ | %25
 A,!<)!z/A/A,z/A/!mf!A,z/!<(!A/ A,z/A/A,z/A/A,z/A/ | %26
 (^D3/2 x/ A,3/2 x/ =E3/2) x/ (D3/2 x/ A,3/2 x/ E3/2) x/ | %27
 (F3/2 x/ A,3/2 x/ F3/2)!<)! x/!ff!!<(! F>D[I:staff +1]A,>[I:staff -1]DF>F!<)! | %28
!>(! !>!A>F[I:staff +1]^G,>[I:staff -1]F^G>F!>)!!<(! F>D[I:staff +1]A,>[I:staff -1]DF>F!<)! | %29
!>(! !>!A>F[I:staff +1]^G,>[I:staff -1]F^G>F!>)!!ff! [FAd]4 ([DFA]2 | %30
 [DF]4) (D2[I:staff +1] [D,F,A,]4)[I:staff -1] ([FAd]2 |!>(! [GBe]4) ([EGB]2 [EG]4) (E2 | %32
[I:staff +1] [E,G,B,]2[I:staff -1] [^C=E]4)!>)!!mf!!<(! F>D[I:staff +1]A,>[I:staff -1]DF>F!<)! | %33
!>(! !>!A>F[I:staff +1]^G,>[I:staff -1]F^G>F!>)!!<(! F>D[I:staff +1]A,>[I:staff -1]DF>F!<)! | %34
!>(! !>!A>F[I:staff +1]^G,>[I:staff -1]F^G>F!>)! !>!A>F[I:staff +1]G,>[I:staff -1]FG>F | %35
 ^g3/2 x/ g3/2 x/ a3/2 x/ g3/2 x/ =g3/2 x/ ([^F^f]>=c | %36
 ^F>C)!<(![I:staff +1] (B,>[I:staff -1]_GA>!<)!F[I:staff +1] A,>[I:staff -1]G)!<(![I:staff +1] (B,>[I:staff -1]GA>!<)!G) | %37
 b3/2 x/ _c'3/2 x/ b3/2 x/ a3/2 x/ ([_A_a]>d)(A>D) |!<(! z12!<)! | %39
!ff! z2 ([Adf]2 [FAd]2) ([Beg]2 [GBe]2) ([Beg]2 | %40
 [egb]2) ([Beg]2 [GB=e]2) ([Adf]2 [dfa]2) ([fad']2 | %41
 [gbe']>)e [fad']>d [f_a_d']>_d [=eg=c']>c [^d^f=b]>=B [^dfb]>B | %42
 [=d=f_b]>B [dfb]>B [dfb]>B [dfb]>B [dfb]>B [dfb]>B | %43
!<(! [DFB]>B,!<)! [D^FB]4[K:bass]!<(! [=F,B,]2!<)! [^F,B,]4 | %44
"^Un peu plus lent."!mf!!>(! D,>B,(!>!D>B, !>!^C2) D,>B,(!>!D>B, !>!E2) | %45
 D,>B,(!>!D>B,!>)!!mp! !>!^C2) D,>B,(!>!D>B, !>!E2) | D,>B,(!>!D>B, !>!^C2) D,>B,(!>!D>B, !>!E2) | %47
 D,>B,!>!D>B, D2 D,>B,!>!D>B, D2 | G,>D(!>!G>D ^C2) G,>D!<(!(!>!G>D C2) | %49
 G,>D(!>!G>D ^C2)!<)!!f! G,>C(!>!G>C!p! D2) | G,>^C(!>!G>C D2) G,>C(!>!G>C D2) | %51
[K:treble]!<(! (D>G!>!d>G-!<)!!mf! G2)"_dim." (G,>D!>!G>D- D2) | %52
[K:bass] (D,>G,!>!D>G,- G,2) (G,,>D,!>!G,>D,- D,2) | %53
 (D,,>G,,!>!D,>G,,- G,,2)!p! (D,>G,(!>!D>B, ^C2)) | D,>"_cresc."B,(!>!D>B, ^C2) D,>B,(!>!D>B, C2) | %55
!mf! x2!>(! (!>!E2 E2)!>)!!mf! x2!>(! (!>!E2 E2)!>)! | %56
!mf! x2!>(! (D2 D2)!>)!!mf! x2!>(! (D2 D2)!>)! |!f! x4 !>!D2- D6 |!mf! x4 !>!D2- D6 | %59
!mp! !>![D,G,B,D]6 !>!!fermata![D,G,B,D]6 |] %60
V:3
 D,>B,D>B, D,>B,!>(! D,>B,D>B, D,>B,!>)! | [D,B,]>B,D>B, D,>B,!<(! D,>B,D>B, D,>B,!<)! | %2
 [D,B,]>B,D>B, D,>B, D,>B,D>B, D,>B, | [D,B,]>B,D>B, D,>B,!<(! ^C,>B,^C>B, D,>B,!<)! | %4
 [E,B,]>B,E>B, D,>B, D,>B,D>B, D,>B, | [D,B,]>B,D>B, D,>B,!<(! D,>B,D>B, D,>B,!<)! | %6
 [E,B,]>B,E>B, E,>B, E,>B,E>B, E,>B, | [E,B,]>B,E>B, E,>B, =E,>B,=E>B, E,>A, | %8
 F,>DF>D F,>D!>(! F,>DF>D F,>D!>)! | [F,D]>DF>D F,>D F,>DF>D F,>D | %10
 [F,D]>DF>D F,>D!>(! F,>DF>D F,>D!>)! | [=E,D]>D=E>D F,>D E,>DE>D E,>D | %12
 !>![=E,D]>D=E>D E,>D F,>DF>D F,>D | [F,D]>DF>D F,>D F,>DF>D F,>D |[K:treble] x12 | x12 | x12 | %17
 x12 | x12 | x12 | x12 | A6 x6 | %22
 C>[I:staff +1]=E,,-[I:staff -1]D>[I:staff +1]A,,,[I:staff -1]C>[I:staff +1]E,,[I:staff -1] A,>[I:staff +1]^D,,-[I:staff -1]C>[I:staff +1]A,,,[I:staff -1]A,>[I:staff +1]D,, | %23
[I:staff -1] C>[I:staff +1]=E,,-[I:staff -1]D>[I:staff +1]A,,,[I:staff -1]C>[I:staff +1]E,,[I:staff -1] =B,>[I:staff +1]^D,,-[I:staff -1]C>[I:staff +1]A,,,[I:staff -1]B,>[I:staff +1]D,, | %24
[I:staff -1] C>[I:staff +1]=E,,-[I:staff -1]D>[I:staff +1]A,,,[I:staff -1]C>[I:staff +1]E,, x6 | %25
 x12 | x12 | x12 | x12 | x12 | A,4 [F,A,]2 x6 | x6 B,4 [G,B,]2 | x2 [G,A,]4 x6 | x12 | x12 | %35
[I:staff -1] [^G^g]>d[Gg]>d [Aa]>e [Gg]>d[=G=g]>^c x2 | x12 | [Bb]>=e[_c_c']>f[Bb]>e [Aa]>_e x4 | %38
 x12 | x12 | x12 | x12 | x12 | x6[K:bass] x6 | x12 | x12 | x12 | x12 | x12 | x12 | x12 | %51
[K:treble] x12 |[K:bass] x12 | x12 | x12 | (D,>B,E>)B,- B,2 (D,>B,E>)B,- B,2 | %56
 (D,>B,D>)B,- B,2 (D,>B,D>)B,- B,2 | (D,>B,!>!D>)B,- B,2- B,6 | (D,>B,!>!D>)B,- B,2- B,6 | x12 |] %60
V:4
!ped! z12!ped-up! | z12 | z2!mf!!>(! [^F,,,^F,,]2 [G,,,G,,]2!>)! z4 z2 | z12 | %4
 z2!mf!!>(! [^F,,,^F,,]2 [G,,,G,,]2!>)! z4 z2 | %5
 z2!mf!!>(! [_A,,,_A,,]2 [G,,,G,,]2!>)! z2!mf!!>(! [^F,,,^F,,]2 [G,,,G,,]2!>)! | %6
 z2!mf! !^!^C,,4- C,,2 z2!f! ^C,2 | (A,,2 G,,4- G,,4 A,,2) | %8
 z2 (!>!^G,,2 A,,2) (!>!^C,,2 D,,2) z2 | z2!mp! (!>!^C,,2 D,,2) (!>!^G,,2 A,,2) z2 | %10
 z2 (!>!^C,,2 D,,2) (!>!^G,,2 A,,2) z2 | z2 (!>!^G,,2 A,,2) z2 (!>!G,,2 A,,2-) | %12
 A,,2 (!>!_B,,2 A,,2) z2 (!>!^C,,2 D,,2) | z2 (!>!^G,,,2 A,,,2) z2!8vb(! (!>!^C,,,2 D,,,2)!8vb)! | %14
!<(! (!>!^A,,,2 =B,,,2) (!>!^A,,2 =B,,2) (!>!A,,2 B,,2) | %15
 (!>!C,2 =B,,2) (!>!C,2 ^C,2) (!>!D,2 ^D,2)!<)! |!f! !>!=E,4 E,2 z (!>!B,G,F, E,2) | %17
 z (!>!_A,F,=E, D,2) z (!>!D,=B,,A,, G,,2- | G,,4) z2 z (!>!B,,G,,F,, =E,,2-) | E,,6- E,,2 z2 z2 | %20
 z ([A,,,A,,][B,,,B,,][D,,D,][F,,F,][A,,A,]) z ([B,,,B,,][D,,D,][=E,,=E,][G,,G,][^G,,^G,]) | %21
 [A,,A,]6 A,2 z2 z2 | x2 E,,4 x2 D,,4 | x2 E,,4 x2 D,,4 | %24
 x2 E,,4!f!!<(! !^![G,,G,]2 !^![^F,,^F,]2 !^![=F,,=F,]2 | %25
 !^![=E,,=E,]2 !^![^D,,^D,]2!<)! z2 !^![E,,E,]2 !^![D,,D,]2 z2 | %26
[I:staff -1] =B,>[I:staff +1]B,,[I:staff -1]A,>[I:staff +1]F,,[I:staff -1]C>[I:staff +1]C,[I:staff -1] B,>[I:staff +1]=B,,[I:staff -1]A,>[I:staff +1]F,,[I:staff -1]C>[I:staff +1]C, | %27
[I:staff -1] ^C>[I:staff +1]^C,[I:staff -1]A,>[I:staff +1]F,,[I:staff -1]C>[I:staff +1]C, F,,4- F,,>=E,, | %28
 !>!D,,2 _B,,4 F,,4- F,,>=E,, | !>!D,,2 _B,,4 D,,>^C,,D,,>C,,!ped!D,,>C,, | %30
 D,,>^C,,D,,>!ped-up!C,,!ped!D,,>C,, D,,>C,,D,,>!ped-up!C,,!ped!D,,>C,, | %31
 D,,>^C,,D,,>!ped-up!C,,!ped!D,,>C,, D,,>C,,D,,>!ped-up!C,,!ped!D,,>C,, | %32
 D,,>^C,,D,,>C,,D,,>!ped-up!C,, (D,,2 F,,7/2 =E,,/ | !>!D,,2 B,,4) (D,,2 F,,7/2 =E,,/ | %34
 !>!D,,2 B,,4) (!>!D,,2 B,,4) |!<(! (B,2 =B,2 C2!<)! B,2!>(! _B,2 A,2-)!>)! | %36
 A,2 (E,,2 _C,4) (E,,2 C,2) |!<(! (_D2 __E2!<)! D2!>(! C2 _C4)!>)! | %38
 (_A,>D,)(_A,,>D,,)(_A,,,>!8vb(!D,,,) (^C,,,>D,,,)!8vb)!(^C,,>D,,)(^C,>D,) | %39
!8vb(! (^C,,,>D,,,)!8vb)!(^C,,>D,,)(^C,>D,) (^C>D)(C,>D,)(C,,>D,,) | %40
!8vb(!!>(! (^C,,,>D,,,)!8vb)!(^C,,>D,,)(^C,>D,)!>)!!mp!!<(! (^C>D)(C>D)(C>D) | %41
 (^C>D)(C>D)(C>=D) (^C>D)(C>D)(C>D) | (^C>D) (C>D) (C>D) (C>D) (C>D) (C>D)!<)! | %43
!f! (^C,>D,) (C,>D,) (C,>D,) (C,>D,) (C,>D,) (^C,,>D,,) | %44
!mf! !>!G,,,4 (E,,>G,,) !>!G,,,4 (^C,,>G,,) | !>!G,,,4 (E,,>G,,) !>!G,,,4 (^C,,>G,,) | %46
 !>!G,,,4 (E,,>G,,) !>!G,,,4 (^C,,>G,,) | !>!G,,,4 (^F,,>G,,) !>!G,,,4 (F,,>G,,) | %48
 !>!G,,,4 (E,,>G,,) !>!G,,,4 (E,,>G,,) | !>!G,,,4 (E,,>G,,) !>!G,,,4 (D,,>G,,) | %50
 !>!G,,,4 (D,,>G,,) !>!G,,,4 (D,,>G,,) | !>!G,,,4!mf!!>(! (^F,>G,)!>)! z4!mf!!>(! (^C,>D,)!>)! | %52
 z2 z2!mf!!>(! (^F,,>G,,)!>)! z2 z2!mf!!>(! (^C,,>D,,)!>)! | %53
 z2 z2!mf! (^F,,,>G,,,)"^Encore plus lent"!p!!<(! !>!G,,,4 (E,,>G,,) | %54
 !>!G,,,4 (E,,>G,,) !>!G,,,4 (E,,>G,,) | !>!G,,,4 (A,,>B,,) !>!G,,,4 (A,,>B,,) | %56
 !>!G,,,4 (^F,,>G,,) !>!G,,,4!<(! (^C,,>D,,)!<)!!<)! |!ff! !>!G,,,6- G,,,2!>(! (^C,,7/2!>)! D,,/) | %58
 G,,,6- G,,,2!>(! (^C,,7/2 D,,/)!>)! | !>!G,,,6 !>!G,,,6 |] %60
V:5
 x12 | x12 | x12 | x12 | x12 | x12 | x12 | x12 | x12 | x12 | x12 | x12 | x12 | x8!8vb(! x4!8vb)! | %14
 x12 | x12 | x12 | x12 | x12 | x12 | x12 | x12 | x12 | x12 | x12 | x12 | %26
 x3/2 =B,, x F,, x C, x B,, x F,, x C,/ | x3/2 ^C, x F,, x15/2 | x12 | x12 | x12 | x12 | x12 | %33
 x12 | x12 | x12 | x12 | x12 | x11/2!8vb(! x5/2!8vb)! x4 |!8vb(! x2!8vb)! x10 | %40
!8vb(! x2!8vb)! x10 | x12 | x12 | x12 | x12 | x12 | x12 | x12 | x12 | x12 | x12 | x12 | x12 | x12 | %54
 x12 | x12 | x12 | x12 | x12 | x12 |] %60

